!!!OTL: Puer natus in Bethleem
**kern
*staff1
=1-
*clefF4
*k[b-]
*met(c|)
*M2/2
2r
2G\
2G\
2G\
2D\
2D\
1G
=2
1F
1BB-
=3
2r
2G\
2G\
2G\
=4
2F\
2F\
2.BB-/
4BB-/
2F\
=5
!!linebreak:original
2F\
2.B-\
4B-\
=6
2F\
2F\
2G\
2G\
2F\
2F\
2G\
1C
2E-\
1D
=7
0GG
==
*-
!!title: @{OTL}, @{GTL}, ed. @{ENC}
!!!pag:
!!!GTL: Hymnbook D
!!!EFL: 
!!!YEM: Creative Commons CC/BY/NC/SA 4.0
!!!ENC: Marcin Konik
!!!END: 2015-0m-dd
!!!EED: Marcin Konik
!!!EEV: 
!!!ONB: Encoded in vim by Marcin Konik
!!!CharacterEncoding: utf-8
!!!RDF**kern: l=long note in original notation
!!!RDF**kern: i=editorial accidental
!!muse2ps: z14jc180F
!!!COM: Anonim
!!!CDT: [?]
!!!TXO: Polish
!!!ODT: 
!!!GTL: Hymnbook D
!!!ARL: Opactwo św. Wojciecha, Staniątki 
!!!voices:	1
